X:1
T:Title
%%score { ( 1 3 5 ) | ( 2 4 ) }
L:1/8
Q:1/4=200
M:3/2
K:C
V:1 treble nm="Grand Piano"
V:3 treble 
V:5 treble 
V:2 bass 
V:4 bass 
V:1
 [CE]4 [DF]4 E4 | D8 z4 | F8 z4 | [CE]12 | [Ec]4 [DEB]4 [CEA]4 | z4 z2 ^F2 G2 A2 | B8 z4 | %7
w: G.~C.~Grubb * *|||||||
 [G,B,G]12 | [DFG]4 [B,FA]4 D4- | [DE-e-]4 [Ee]4 [Fd]4 | [Ec]8 [DEB]4 | [EA]12 | A4 B4 c4 | %13
w: ||||||
 D8[K:bass] z4 | F8 z4 | [CE]12 |] %16
w: |||
V:2
 [C,G,]4 [B,,G,]4 [C,G,C]4 | B,4 z4 z4 | D4 z4 z4 | [C,G,]12 | [A,,A,]4 B,,4 C,4 | %5
 [D,B,D]4 [_E,A,]4 G,2- [_E,G,C]2 | [G,D]4 z4 z4 | G,,12 | B,,4 G,,4 B,,4 | z4 C4 ^G,4- | %10
 G,4 A,4 C,4 | C,4 C8 | [A,CE]4 [^G,B,E]4 [=G,A,E]4 | [A,C]8 [E,G,^C]4 | [D,A,]8 z4 | [C,G,]12 |] %16
V:3
 x12 | z4 A,4 E4 | z4 C4 [B,G]4 | x12 | x12 | G8 z4 | z4 ^C4 A4 | x12 | z4 z4 [FG]4 | x12 | x12 | %11
 C4 z4 B,4 | x12 | z4[K:bass] F,4 E4 | z4 C4 [B,G]4 | x12 |] %16
V:4
 x12 | [F,C]8 [E,G,C]4 | [D,A,]8 [G,,G,]4 | x12 | x12 | z4 z4 .[=E,B,]4 | D,4- [D,E,]4 [D,^F,C]4 | %7
 x12 | x12 | C,8 C,4 | C,8 z4 | x12 | x12 | ^F,4 z4 z4 | D4 z4 [G,,G,]4 | x12 |] %16
V:5
 x12 | x12 | x12 | x12 | x12 | z4 B,4 z4 | x12 | x12 | x12 | x12 | x12 | x12 | x12 | %13
 x4[K:bass] x8 | x12 | x12 |] %16

